Dominus_Dark_Funeral/symbolic/actions/system-reboot-symbolic.svg

<svg xmlns="http://www.w3.org/2000/svg" width="24" height="24"><g fill="gray"><path d="M16.552 2.491a1.462 1.462 0 0 0-.78 2.735 7.304 7.304 0 0 1 3.486 7.767 7.3 7.3 0 0 1-6.224 5.805 7.296 7.296 0 0 1-7.497-4.026 7.3 7.3 0 0 1 1.387-8.396 1.463 1.463 0 1 0-2.069-2.069 10.246 10.246 0 0 0-1.944 11.756 10.243 10.243 0 0 0 10.498 5.63 10.243 10.243 0 0 0 8.712-8.123A10.244 10.244 0 0 0 17.243 2.7a1.462 1.462 0 0 0-.693-.207z" font-family="sans-serif" font-weight="400" overflow="visible" style="font-variant-ligatures:normal;font-variant-position:normal;font-variant-caps:normal;font-variant-numeric:normal;font-variant-alternates:normal;font-feature-settings:normal;text-indent:0;text-decoration-line:none;text-decoration-style:solid;text-decoration-color:#000;text-transform:none;text-orientation:mixed;shape-padding:0;isolation:auto;mix-blend-mode:normal" white-space="normal"/><path d="M8.206 1.807c.807 0 1.462.695 1.462 1.454v5.857l-7.311-7.31z"/></g></svg>

<?xml version="1.0" encoding="UTF-8" standalone="no"?>
<svg
   xmlns:dc="http://purl.org/dc/elements/1.1/"
   xmlns:cc="http://creativecommons.org/ns#"
   xmlns:rdf="http://www.w3.org/1999/02/22-rdf-syntax-ns#"
   xmlns:svg="http://www.w3.org/2000/svg"
   xmlns="http://www.w3.org/2000/svg"
   xmlns:sodipodi="http://sodipodi.sourceforge.net/DTD/sodipodi-0.dtd"
   xmlns:inkscape="http://www.inkscape.org/namespaces/inkscape"
   width="24"
   height="24"
   version="1.1"
   id="svg8"
   sodipodi:docname="system-reboot-symbolic.svg"
   inkscape:version="0.92.4 (5da689c313, 2019-01-14)">
  <metadata
     id="metadata14">
    <rdf:RDF>
      <cc:Work
         rdf:about="">
        <dc:format>image/svg+xml</dc:format>
        <dc:type
           rdf:resource="http://purl.org/dc/dcmitype/StillImage" />
        <dc:title></dc:title>
      </cc:Work>
    </rdf:RDF>
  </metadata>
  <defs
     id="defs12" />
  <sodipodi:namedview
     pagecolor="#ffffff"
     bordercolor="#666666"
     borderopacity="1"
     objecttolerance="10"
     gridtolerance="10"
     guidetolerance="10"
     inkscape:pageopacity="0"
     inkscape:pageshadow="2"
     inkscape:window-width="1112"
     inkscape:window-height="480"
     id="namedview10"
     showgrid="false"
     inkscape:zoom="9.8333333"
     inkscape:cx="1.0677966"
     inkscape:cy="12"
     inkscape:window-x="0"
     inkscape:window-y="25"
     inkscape:window-maximized="0"
     inkscape:current-layer="svg8" />
  <g
     id="g6"
     style="fill:#808080">
    <path
       d="m 16.552,2.491 a 1.462,1.462 0 0 0 -0.78,2.735 7.304,7.304 0 0 1 3.486,7.767 7.3,7.3 0 0 1 -6.224,5.805 A 7.296,7.296 0 0 1 5.537,14.772 7.3,7.3 0 0 1 6.924,6.376 1.4630039,1.4630039 0 1 0 4.855,4.307 10.246,10.246 0 0 0 2.911,16.063 10.243,10.243 0 0 0 13.409,21.693 10.243,10.243 0 0 0 22.121,13.57 10.244,10.244 0 0 0 17.243,2.7 1.462,1.462 0 0 0 16.55,2.493 Z"
       font-weight="400"
       overflow="visible"
       style="font-weight:400;font-family:sans-serif;font-variant-ligatures:normal;font-variant-position:normal;font-variant-caps:normal;font-variant-numeric:normal;font-variant-alternates:normal;font-feature-settings:normal;text-indent:0;text-decoration:none;text-decoration-line:none;text-decoration-style:solid;text-decoration-color:#000000;text-transform:none;text-orientation:mixed;white-space:normal;shape-padding:0;overflow:visible;isolation:auto;mix-blend-mode:normal"
       id="path2"
       inkscape:connector-curvature="0" />
    <path
       d="m 8.206,1.807 c 0.807,0 1.462,0.695 1.462,1.454 V 9.118 L 2.357,1.808 Z"
       id="path4"
       inkscape:connector-curvature="0" />
  </g>
</svg>
